; generated by PrusaSlicer 2.7.4 on 2024-06-05 at 09:43:09 UTC


;
;
; 

; external perimeters extrusion width = 0.45mm
; perimeters extrusion width = 0.45mm
; infill extrusion width = 0.45mm
; solid infill extrusion width = 0.45mm
; top infill extrusion width = 0.40mm
; first layer extrusion width = 0.42mm

M73 P0 R56
M73 Q0 S56
M201 X1000 Y1000 Z200 E5000 ; sets maximum accelerations, mm/sec^2
M203 X200 Y200 Z12 E120 ; sets maximum feedrates, mm / sec
M204 S1250 T1250 ; sets acceleration (S) and retract acceleration (R), mm/sec^2
M205 X8.00 Y8.00 Z0.40 E4.50 ; sets the jerk limits, mm/sec
M205 S0 T0 ; sets the minimum extruding and travel feed rate, mm/sec

; printing object SelfBalancing-WheelBody.stl id:0 copy 0
; stop printing object SelfBalancing-WheelBody.stl id:0 copy 0

;TYPE:Custom
M862.3 P "MK3" ; printer model check
M862.1 P0.4 ; nozzle diameter check
M115 U3.13.3 ; tell printer latest fw version
G90 ; use absolute coordinates
M83 ; extruder relative mode
M104 S230 ; set extruder temp
M140 S85 ; set bed temp
M190 S85 ; wait for bed temp
M109 S230 ; wait for extruder temp
G28 W ; home all without mesh bed level
G80 X97.4352 Y77.4422 W55.1296 H55.1157 ; mesh bed levelling

G1 Z0.2 F720
G1 Y-3 F1000 ; go outside print area
G92 E0
G1 X60 E9 F1000 ; intro line
G1 X100 E12.5 F1000 ; intro line

G92 E0
M221 S95

; Don't change E values below. Excessive value can damage the printer.
M907 E430 ; set extruder motor current
G21 ; set units to millimeters
G90 ; use absolute coordinates
M83 ; use relative distances for extrusion

M900 K0.08 ; Filament gcode LA 1.5
M900 K45 ; Filament gcode LA 1.0




M107
;LAYER_CHANGE
;Z:0.2
;HEIGHT:0.2
G1 E-1 F2100
G1 Z.4 F720
G1 X104.298 Y87.133 F10800
G1 Z.2 F720
G1 E1 F2100
M204 S800
;TYPE:Skirt/Brim
;WIDTH:0.42
G1 F1200
G1 X104.891 Y86.423 E.029
G1 X106.817 Y84.535 E.08456
G1 X107.977 Y83.559 E.04753
G1 X110.197 Y81.971 E.08558
G1 X112.563 Y80.612 E.08555
G1 X115.053 Y79.494 E.08558
G1 X117.642 Y78.631 E.08557
G1 X120.305 Y78.029 E.0856
G1 X123.013 Y77.696 E.08555
G1 X125.742 Y77.634 E.08559
G1 X128.452 Y77.842 E.08522
G1 X131.111 Y78.314 E.08467
G1 X133.775 Y79.068 E.08681
G1 X136.314 Y80.071 E.0856
G1 X138.73 Y81.316 E.08522
G1 X140.997 Y82.783 E.08466
G1 X143.159 Y84.513 E.08682
G1 X145.101 Y86.415 E.08523
G1 X146.78 Y88.415 E.08188
G1 X148.323 Y90.666 E.08557
G1 X149.635 Y93.059 E.08557
G1 X150.701 Y95.571 E.08556
G1 X151.515 Y98.187 E.0859
G1 X152.06 Y100.851 E.08526
G1 X152.339 Y103.576 E.08589
G1 X152.345 Y106.305 E.08557
G1 X152.079 Y109.022 E.0856
G1 X151.544 Y111.698 E.08556
G1 X150.746 Y114.308 E.08557
G1 X149.691 Y116.825 E.08557
G1 X148.391 Y119.224 E.08555
G1 X146.858 Y121.483 E.0856
G1 X145.109 Y123.577 E.08555
G1 X143.16 Y125.486 E.08554
G1 X142.023 Y126.441 E.04656
G1 X139.803 Y128.029 E.08558
G1 X137.437 Y129.388 E.08555
M73 P0 R55
G1 X134.947 Y130.506 E.08558
G1 X132.368 Y131.366 E.08524
G1 X129.696 Y131.971 E.0859
G1 X126.987 Y132.304 E.08558
G1 X124.258 Y132.366 E.08559
G1 X121.655 Y132.171 E.08184
G1 X118.966 Y131.703 E.08558
G1 X116.338 Y130.97 E.08554
G1 X113.794 Y129.978 E.08562
G1 X111.363 Y128.738 E.08557
G1 X109.067 Y127.262 E.08558
G1 X106.93 Y125.565 E.08556
G1 X104.972 Y123.664 E.08557
G1 X103.214 Y121.578 E.08553
G1 X101.677 Y119.334 E.08528
G1 X100.365 Y116.941 E.08557
G1 X99.299 Y114.429 E.08556
G1 X98.488 Y111.824 E.08554
G1 X97.94 Y109.15 E.08558
G1 X97.661 Y106.434 E.08561
G1 X97.654 Y103.705 E.08557
G1 X97.919 Y100.989 E.08556
G1 X98.456 Y98.302 E.08591
G1 X99.251 Y95.702 E.08525
G1 X100.305 Y93.185 E.08556
G1 X101.609 Y90.776 E.08589
G1 X103.142 Y88.517 E.0856
G1 X104.26 Y87.179 E.05467
M204 S1000
;WIPE_START
G1 F8640
G1 X104.298 Y87.133 E-.01378
G1 X104.891 Y86.423 E-.2136
G1 X106.817 Y84.535 E-.62275
G1 X107.314 Y84.117 E-.14987
;WIPE_END
G1 Z.4 F720
; printing object SelfBalancing-WheelBody.stl id:0 copy 0
G1 X105.699 Y119.62 F10800
G1 Z.2 F720
G1 E1 F2100
M204 S800
;TYPE:Perimeter
;WIDTH:0.419999
G1 F1200
G1 X104.995 Y118.639 E.03786
G1 X104.34 Y117.625 E.03785
G1 X103.736 Y116.58 E.03784
G1 X103.185 Y115.505 E.03788
G1 X102.689 Y114.405 E.03783
G1 X102.248 Y113.281 E.03786
G1 X101.863 Y112.137 E.03785
G1 X101.536 Y110.975 E.03785
G1 X101.267 Y109.798 E.03786
G1 X101.058 Y108.609 E.03785
G1 X100.908 Y107.411 E.03786
G1 X100.817 Y106.207 E.03786
G1 X100.787 Y105 E.03786
G1 X100.817 Y103.793 E.03786
G1 X100.908 Y102.589 E.03786
G1 X101.058 Y101.391 E.03786
G1 X101.267 Y100.202 E.03785
G1 X101.536 Y99.025 E.03786
G1 X101.863 Y97.863 E.03785
G1 X102.248 Y96.719 E.03785
G1 X102.689 Y95.595 E.03786
G1 X103.185 Y94.495 E.03783
G1 X103.736 Y93.42 E.03788
G1 X104.34 Y92.375 E.03784
G1 X104.995 Y91.361 E.03785
G1 X105.699 Y90.38 E.03786
G1 X106.452 Y89.436 E.03786
G1 X107.251 Y88.531 E.03785
G1 X108.094 Y87.667 E.03785
G1 X108.979 Y86.846 E.03785
G1 X109.904 Y86.07 E.03786
G1 X110.866 Y85.341 E.03785
G1 X111.864 Y84.661 E.03786
G1 X112.894 Y84.031 E.03786
G1 X113.954 Y83.454 E.03784
G1 X115.042 Y82.93 E.03786
G1 X116.154 Y82.461 E.03784
G1 X117.289 Y82.048 E.03787
G1 X118.442 Y81.692 E.03784
G1 X119.612 Y81.394 E.03786
G1 X120.796 Y81.155 E.03787
G1 X121.989 Y80.975 E.03783
G1 X123.191 Y80.855 E.03788
G1 X124.396 Y80.795 E.03783
G1 X125.604 Y80.795 E.03788
G1 X126.809 Y80.855 E.03783
G1 X128.011 Y80.975 E.03788
G1 X129.204 Y81.155 E.03783
G1 X130.388 Y81.394 E.03787
G1 X131.558 Y81.692 E.03786
G1 X132.711 Y82.048 E.03784
G1 X133.846 Y82.461 E.03787
G1 X134.958 Y82.93 E.03784
G1 X136.046 Y83.454 E.03786
G1 X137.106 Y84.031 E.03784
G1 X138.136 Y84.661 E.03786
G1 X139.134 Y85.341 E.03786
G1 X140.096 Y86.07 E.03785
G1 X141.021 Y86.846 E.03786
G1 X141.906 Y87.667 E.03785
G1 X142.749 Y88.531 E.03785
G1 X143.548 Y89.436 E.03785
G1 X144.301 Y90.38 E.03786
G1 X145.005 Y91.361 E.03786
G1 X145.66 Y92.375 E.03785
G1 X146.264 Y93.42 E.03784
G1 X146.815 Y94.495 E.03788
G1 X147.311 Y95.595 E.03783
G1 X147.752 Y96.719 E.03786
G1 X148.137 Y97.863 E.03785
G1 X148.464 Y99.025 E.03785
G1 X148.733 Y100.202 E.03786
G1 X148.942 Y101.391 E.03785
G1 X149.092 Y102.589 E.03786
G1 X149.183 Y103.793 E.03786
G1 X149.211 Y105.058 E.03967
G1 X149.183 Y106.207 E.03604
G1 X149.092 Y107.411 E.03786
G1 X148.942 Y108.609 E.03786
G1 X148.733 Y109.798 E.03785
G1 X148.464 Y110.975 E.03786
G1 X148.137 Y112.137 E.03785
G1 X147.752 Y113.281 E.03785
G1 X147.311 Y114.405 E.03786
G1 X146.815 Y115.505 E.03783
G1 X146.264 Y116.58 E.03788
G1 X145.66 Y117.625 E.03784
G1 X145.005 Y118.639 E.03785
G1 X144.301 Y119.62 E.03786
G1 X143.548 Y120.564 E.03786
G1 X142.749 Y121.469 E.03785
G1 X141.906 Y122.333 E.03785
G1 X141.021 Y123.154 E.03785
G1 X140.096 Y123.93 E.03786
G1 X139.134 Y124.659 E.03785
G1 X138.136 Y125.339 E.03786
G1 X137.106 Y125.969 E.03786
G1 X136.046 Y126.546 E.03784
G1 X134.958 Y127.07 E.03786
G1 X133.846 Y127.539 E.03784
G1 X132.711 Y127.952 E.03787
G1 X131.558 Y128.308 E.03784
G1 X130.388 Y128.606 E.03786
G1 X129.204 Y128.845 E.03787
G1 X128.011 Y129.025 E.03783
G1 X126.809 Y129.145 E.03788
G1 X125.604 Y129.205 E.03783
G1 X124.396 Y129.205 E.03788
G1 X123.191 Y129.145 E.03783
G1 X121.989 Y129.025 E.03788
G1 X120.796 Y128.845 E.03783
G1 X119.612 Y128.606 E.03787
G1 X118.442 Y128.308 E.03786
G1 X117.289 Y127.952 E.03784
G1 X116.154 Y127.539 E.03787
G1 X115.042 Y127.07 E.03784
G1 X113.954 Y126.546 E.03786
G1 X112.894 Y125.969 E.03784
G1 X111.864 Y125.339 E.03786
G1 X110.866 Y124.659 E.03786
G1 X109.904 Y123.93 E.03785
G1 X108.979 Y123.154 E.03786
G1 X108.094 Y122.333 E.03785
G1 X107.251 Y121.469 E.03785
G1 X106.456 Y120.568 E.03768
G1 X105.737 Y119.667 E.03614
M204 S1000
G1 X105.737 Y119.667 F10800
G1 X105.399 Y119.847
M204 S800
;TYPE:External perimeter
G1 F1200
G1 X104.683 Y118.852 E.03844
G1 X104.018 Y117.822 E.03844
G1 X103.405 Y116.76 E.03845
G1 X102.845 Y115.669 E.03845
G1 X102.341 Y114.552 E.03842
G1 X101.893 Y113.41 E.03846
G1 X101.503 Y112.248 E.03843
G1 X101.171 Y111.068 E.03843
G1 X100.898 Y109.872 E.03846
G1 X100.685 Y108.665 E.03843
G1 X100.532 Y107.448 E.03846
G1 X100.441 Y106.226 E.03842
G1 X100.41 Y105 E.03845
G1 X100.441 Y103.774 E.03845
G1 X100.532 Y102.552 E.03842
G1 X100.685 Y101.335 E.03846
G1 X100.898 Y100.128 E.03843
G1 X101.171 Y98.932 E.03846
G1 X101.503 Y97.752 E.03843
G1 X101.893 Y96.59 E.03843
G1 X102.341 Y95.448 E.03846
G1 X102.845 Y94.331 E.03842
G1 X103.405 Y93.24 E.03845
G1 X104.018 Y92.178 E.03845
G1 X104.683 Y91.148 E.03844
G1 X105.399 Y90.153 E.03844
G1 X106.163 Y89.194 E.03844
G1 X106.974 Y88.275 E.03843
G1 X107.83 Y87.397 E.03845
G1 X108.729 Y86.563 E.03845
G1 X109.668 Y85.775 E.03844
G1 X110.646 Y85.035 E.03845
G1 X111.659 Y84.344 E.03845
G1 X112.705 Y83.705 E.03843
G1 X113.782 Y83.118 E.03846
G1 X114.887 Y82.586 E.03845
G1 X116.016 Y82.11 E.03842
G1 X117.168 Y81.691 E.03844
G1 X118.34 Y81.329 E.03846
G1 X119.528 Y81.027 E.03843
G1 X120.73 Y80.784 E.03845
G1 X121.942 Y80.601 E.03843
G1 X123.162 Y80.479 E.03844
G1 X124.387 Y80.418 E.03846
G1 X125.613 Y80.418 E.03844
G1 X126.838 Y80.479 E.03846
G1 X128.058 Y80.601 E.03844
G1 X129.27 Y80.784 E.03843
G1 X130.472 Y81.027 E.03845
G1 X131.66 Y81.329 E.03843
G1 X132.832 Y81.691 E.03846
G1 X133.984 Y82.11 E.03844
G1 X135.114 Y82.586 E.03845
G1 X136.218 Y83.118 E.03842
G1 X137.295 Y83.705 E.03846
G1 X138.341 Y84.344 E.03843
G1 X139.354 Y85.035 E.03845
G1 X140.332 Y85.775 E.03845
G1 X141.271 Y86.563 E.03844
G1 X142.17 Y87.397 E.03845
G1 X143.026 Y88.275 E.03845
G1 X143.837 Y89.194 E.03843
G1 X144.601 Y90.153 E.03844
G1 X145.317 Y91.148 E.03844
G1 X145.982 Y92.178 E.03844
G1 X146.595 Y93.24 E.03845
G1 X147.155 Y94.331 E.03845
G1 X147.659 Y95.448 E.03842
G1 X148.107 Y96.59 E.03846
G1 X148.497 Y97.752 E.03843
G1 X148.829 Y98.932 E.03843
G1 X149.102 Y100.128 E.03846
G1 X149.315 Y101.335 E.03843
G1 X149.468 Y102.552 E.03846
G1 X149.559 Y103.774 E.03842
G1 X149.588 Y105.067 E.04055
G1 X149.559 Y106.226 E.03635
G1 X149.468 Y107.448 E.03842
G1 X149.315 Y108.665 E.03846
G1 X149.102 Y109.872 E.03843
G1 X148.829 Y111.068 E.03846
G1 X148.497 Y112.248 E.03843
G1 X148.107 Y113.41 E.03843
G1 X147.659 Y114.552 E.03846
G1 X147.155 Y115.669 E.03842
G1 X146.595 Y116.76 E.03845
G1 X145.982 Y117.822 E.03845
G1 X145.317 Y118.852 E.03844
G1 X144.601 Y119.847 E.03844
G1 X143.837 Y120.806 E.03844
G1 X143.026 Y121.725 E.03843
G1 X142.17 Y122.603 E.03845
G1 X141.271 Y123.437 E.03845
G1 X140.332 Y124.225 E.03844
G1 X139.354 Y124.965 E.03845
G1 X138.341 Y125.656 E.03845
G1 X137.295 Y126.295 E.03843
G1 X136.218 Y126.882 E.03846
G1 X135.114 Y127.414 E.03842
G1 X133.984 Y127.89 E.03845
G1 X132.832 Y128.309 E.03844
G1 X131.66 Y128.671 E.03846
G1 X130.472 Y128.973 E.03843
G1 X129.27 Y129.216 E.03845
G1 X128.058 Y129.399 E.03843
G1 X126.838 Y129.521 E.03844
G1 X125.613 Y129.582 E.03846
G1 X124.387 Y129.582 E.03844
G1 X123.162 Y129.521 E.03846
G1 X121.942 Y129.399 E.03844
G1 X120.73 Y129.216 E.03843
G1 X119.528 Y128.973 E.03845
G1 X118.34 Y128.671 E.03843
G1 X117.168 Y128.309 E.03846
G1 X116.016 Y127.89 E.03844
G1 X114.886 Y127.414 E.03845
G1 X113.782 Y126.882 E.03842
G1 X112.705 Y126.295 E.03846
G1 X111.659 Y125.656 E.03843
G1 X110.646 Y124.965 E.03845
G1 X109.668 Y124.225 E.03845
G1 X108.729 Y123.437 E.03844
G1 X107.83 Y122.603 E.03845
G1 X106.974 Y121.725 E.03845
G1 X106.167 Y120.81 E.03825
G1 X105.436 Y119.894 E.03674
M204 S1000
;WIPE_START
G1 F8640
G1 X105.399 Y119.847 E-.01381
G1 X104.683 Y118.852 E-.28305
G1 X104.018 Y117.822 E-.28309
G1 X103.405 Y116.76 E-.28314
G1 X103.134 Y116.233 E-.13691
;WIPE_END
G1 Z.4 F720
G1 X126.727 Y84.826 F10800
G1 Z.2 F720
G1 E1 F2100
M204 S800
;TYPE:Perimeter
G1 F1200
G1 X126.752 Y84.694 E.00421
G1 X126.911 Y84.47 E.00861
G1 X127.237 Y84.335 E.01106
G1 X128.59 Y84.525 E.04284
G1 X129.586 Y84.725 E.03185
G1 X130.571 Y84.974 E.03186
G1 X131.544 Y85.27 E.03189
G1 X132.5 Y85.613 E.03185
G1 X133.439 Y86.003 E.03188
G1 X134.357 Y86.438 E.03185
G1 X135.253 Y86.918 E.03187
G1 X136.125 Y87.44 E.03187
G1 X136.969 Y88.005 E.03185
G1 X137.786 Y88.61 E.03188
G1 X138.572 Y89.255 E.03188
G1 X139.325 Y89.937 E.03185
G1 X140.044 Y90.655 E.03186
G1 X140.727 Y91.407 E.03185
G1 X141.373 Y92.192 E.03188
G1 X141.979 Y93.008 E.03187
G1 X142.545 Y93.852 E.03186
G1 X143.069 Y94.723 E.03187
G1 X143.549 Y95.618 E.03184
G1 X143.986 Y96.536 E.03188
G1 X144.377 Y97.474 E.03186
G1 X144.721 Y98.43 E.03186
M73 Q1 S56
G1 X145.019 Y99.402 E.03188
G1 X145.269 Y100.387 E.03186
G1 X145.47 Y101.383 E.03186
G1 X145.66 Y102.637 E.03977
G1 X145.663 Y102.777 E.00439
M73 P1 R55
G1 X145.599 Y102.989 E.00694
G1 X145.449 Y103.167 E.0073
G1 X145.307 Y103.248 E.00513
G1 X145.101 Y103.287 E.00657
G1 X131.919 Y103.287 E.41331
G1 X131.744 Y103.259 E.00556
M73 Q1 S55
G1 X131.579 Y103.173 E.00583
G1 X131.413 Y102.974 E.00813
G1 X131.156 Y102.345 E.0213
G1 X130.853 Y101.728 E.02155
G1 X130.473 Y101.124 E.02237
G1 X129.746 Y100.255 E.03552
G1 X128.986 Y99.6 E.03146
G1 X128.439 Y99.236 E.0206
G1 X127.853 Y98.924 E.02082
G1 X127.066 Y98.605 E.02663
G1 X126.914 Y98.513 E.00557
G1 X126.741 Y98.256 E.00971
G1 X126.713 Y98.081 E.00556
G1 X126.713 Y84.899 E.41331
G1 X126.716 Y84.885 E.00045
M204 S1000
G1 X126.716 Y84.885 F10800
G1 X127.09 Y84.899
M204 S800
;TYPE:External perimeter
G1 F1200
G1 X127.156 Y84.756 E.00494
G1 X127.307 Y84.713 E.00492
G1 X128.533 Y84.898 E.03888
G1 X129.512 Y85.095 E.03131
G1 X130.479 Y85.339 E.03127
G1 X131.433 Y85.63 E.03127
G1 X132.372 Y85.968 E.03129
G1 X133.294 Y86.351 E.0313
G1 X134.195 Y86.779 E.03128
G1 X135.075 Y87.25 E.0313
G1 X135.93 Y87.764 E.03128
G1 X136.76 Y88.318 E.03129
G1 X137.561 Y88.913 E.03129
G1 X138.332 Y89.546 E.03128
G1 X139.072 Y90.216 E.0313
G1 X139.777 Y90.922 E.03128
G1 X140.448 Y91.661 E.0313
G1 X141.081 Y92.432 E.03128
G1 X141.676 Y93.233 E.03129
G1 X142.232 Y94.062 E.0313
G1 X142.745 Y94.917 E.03126
G1 X143.217 Y95.796 E.03128
G1 X143.645 Y96.698 E.0313
G1 X144.029 Y97.619 E.03129
G1 X144.367 Y98.558 E.03129
G1 X144.658 Y99.512 E.03127
G1 X144.903 Y100.479 E.03128
G1 X145.1 Y101.458 E.03131
G1 X145.287 Y102.693 E.03916
G1 X145.267 Y102.81 E.00372
G1 X145.169 Y102.897 E.00411
G1 X145.101 Y102.91 E.00217
G1 X131.919 Y102.91 E.41331
G1 X131.769 Y102.836 E.00524
G1 X131.75 Y102.806 E.00111
G1 X131.505 Y102.204 E.02038
G1 X131.275 Y101.718 E.01686
G1 X130.787 Y100.915 E.02946
G1 X130.013 Y99.987 E.03789
G1 X129.214 Y99.299 E.03306
G1 X128.632 Y98.911 E.02193
G1 X128.013 Y98.582 E.02198
G1 X127.208 Y98.256 E.02723
G1 X127.099 Y98.14 E.00499
G1 X127.09 Y84.959 E.41328
M204 S1000
;WIPE_START
G1 F8640
G1 X127.09 Y84.899 E-.01385
G1 X127.156 Y84.756 E-.03637
G1 X127.307 Y84.713 E-.03625
G1 X128.533 Y84.898 E-.28629
G1 X129.512 Y85.095 E-.23059
G1 X130.479 Y85.339 E-.23028
G1 X131.168 Y85.55 E-.16637
;WIPE_END
G1 Z.4 F720
G1 X123.086 Y107.657 F10800
G1 Z.2 F720
G1 E1 F2100
M204 S800
;TYPE:Perimeter
G1 F1200
G1 X122.691 Y107.337 E.01594
G1 X122.342 Y106.934 E.01672
G1 X122.063 Y106.473 E.0169
G1 X121.872 Y106.004 E.01588
G1 X121.75 Y105.475 E.01702
G1 X121.733 Y104.671 E.02521
G1 X121.863 Y104.084 E.01885
G1 X122.012 Y103.654 E.01427
G1 X122.248 Y103.203 E.01596
G1 X122.712 Y102.645 E.02275
G1 X123.366 Y102.152 E.02568
G1 X124.12 Y101.837 E.02562
G1 X124.78 Y101.723 E.021
G1 X125.583 Y101.769 E.02522
G1 X126.363 Y102.013 E.02562
G1 X126.819 Y102.264 E.01632
G1 X127.223 Y102.579 E.01606
G1 X127.603 Y102.995 E.01767
G1 X127.949 Y103.551 E.02053
G1 X128.172 Y104.169 E.0206
G1 X128.283 Y105.021 E.02694
G1 X128.241 Y105.54 E.01633
G1 X128.101 Y106.089 E.01776
G1 X127.898 Y106.548 E.01574
G1 X127.635 Y106.963 E.0154
G1 X127.233 Y107.403 E.01869
G1 X126.82 Y107.733 E.01658
G1 X126.577 Y107.787 E.0078
G1 X123.423 Y107.787 E.09889
G1 X123.18 Y107.733 E.0078
G1 X123.133 Y107.694 E.00191
M204 S1000
G1 X123.133 Y107.694 F10800
G1 X123.258 Y107.328
M204 S800
;TYPE:External perimeter
G1 F1200
G1 X122.917 Y107.032 E.01416
G1 X122.636 Y106.697 E.01371
G1 X122.402 Y106.308 E.01423
G1 X122.24 Y105.919 E.01321
G1 X122.117 Y105.39 E.01703
G1 X122.11 Y104.67 E.02258
G1 X122.228 Y104.176 E.01592
G1 X122.347 Y103.826 E.01159
G1 X122.566 Y103.407 E.01482
G1 X123.001 Y102.887 E.02126
G1 X123.586 Y102.458 E.02275
