; generated by PrusaSlicer 2.7.4 on 2024-06-05 at 10:17:03 UTC


;
;
; 

; external perimeters extrusion width = 0.45mm
; perimeters extrusion width = 0.45mm
; infill extrusion width = 0.45mm
; solid infill extrusion width = 0.45mm
; top infill extrusion width = 0.40mm
; first layer extrusion width = 0.42mm

; external perimeters extrusion width = 0.45mm
; perimeters extrusion width = 0.45mm
; infill extrusion width = 0.45mm
; solid infill extrusion width = 0.45mm
; top infill extrusion width = 0.40mm
; first layer extrusion width = 0.42mm

M73 P0 R140
M73 Q0 S141
M201 X1000 Y1000 Z200 E5000 ; sets maximum accelerations, mm/sec^2
M203 X200 Y200 Z12 E120 ; sets maximum feedrates, mm / sec
M204 S1250 T1250 ; sets acceleration (S) and retract acceleration (R), mm/sec^2
M205 X8.00 Y8.00 Z0.40 E4.50 ; sets the jerk limits, mm/sec
M205 S0 T0 ; sets the minimum extruding and travel feed rate, mm/sec

; printing object SelfBalancing-SideBody.stl id:0 copy 0
; stop printing object SelfBalancing-SideBody.stl id:0 copy 0
; printing object SelfBalancing-SideBody.stl id:1 copy 0
; stop printing object SelfBalancing-SideBody.stl id:1 copy 0

;TYPE:Custom
M862.3 P "MK3" ; printer model check
M862.1 P0.4 ; nozzle diameter check
M115 U3.13.3 ; tell printer latest fw version
G90 ; use absolute coordinates
M83 ; extruder relative mode
M104 S215 ; set extruder temp
M140 S60 ; set bed temp
M190 S60 ; wait for bed temp
M109 S215 ; wait for extruder temp
G28 W ; home all without mesh bed level
G80 X33.1171 Y63.7249 W187.225 H81.2096 ; mesh bed levelling

G1 Z0.2 F720
G1 Y-3 F1000 ; go outside print area
G92 E0
G1 X60 E9 F1000 ; intro line
G1 X100 E12.5 F1000 ; intro line

G92 E0
M221 S95

; Don't change E values below. Excessive value can damage the printer.
M907 E430 ; set extruder motor current
G21 ; set units to millimeters
G90 ; use absolute coordinates
M83 ; use relative distances for extrusion

M900 K0.05 ; Filament gcode LA 1.5
M900 K30 ; Filament gcode LA 1.0




M107
;LAYER_CHANGE
;Z:0.2
;HEIGHT:0.2
G1 E-.8 F2100
M73 P0 R139
G1 Z.6 F720
G1 X34.842 Y64.105 F10800
G1 Z.2 F720
G1 E.8 F2100
M204 S800
;TYPE:Skirt/Brim
;WIDTH:0.42
G1 F1200
G1 X35.777 Y63.913 E.02993
G1 X217.777 Y63.913 E5.70648
G1 X219.084 Y64.305 E.04278
M73 Q0 S140
G1 X219.96 Y65.351 E.04278
G1 X220.154 Y66.29 E.03006
G1 X220.06 Y142.374 E2.38556
G1 X219.665 Y143.68 E.04278
G1 X218.618 Y144.554 E.04276
G1 X217.683 Y144.746 E.02993
G1 X35.683 Y144.746 E5.70648
G1 X34.376 Y144.354 E.04278
G1 X33.499 Y143.309 E.04277
G1 X33.306 Y142.369 E.03009
G1 X33.4 Y66.285 E2.38556
G1 X33.794 Y64.979 E.04277
G1 X34.796 Y64.143 E.04092
M204 S1000
;WIPE_START
G1 F8640
G1 X34.842 Y64.105 E-.01378
G1 X35.777 Y63.913 E-.2204
G1 X38.227 Y63.913 E-.56582
;WIPE_END
G1 Z.6 F720
; printing object SelfBalancing-SideBody.stl id:0 copy 0
G1 X36.564 Y100.503 F10800
G1 Z.2 F720
G1 E.8 F2100
M204 S800
;TYPE:Perimeter
;WIDTH:0.419999
G1 F1200
G1 X36.564 Y67.078 E1.04802
G1 X216.99 Y67.078 E5.65712
G1 X216.99 Y69.813 E.08575
G1 X216.99 Y100.503 E.96226
G1 X36.624 Y100.503 E5.65524
M204 S1000
G1 X36.624 Y100.503 F10800
G1 X36.187 Y100.88
M204 S800
;TYPE:External perimeter
G1 F1200
G1 X36.187 Y66.7 E1.07169
G1 X217.367 Y66.7 E5.68076
G1 X217.367 Y69.813 E.09761
M73 P0 R138
G1 X217.367 Y100.88 E.97408
G1 X36.247 Y100.88 E5.67888
M204 S1000
;WIPE_START
G1 F8640
M73 Q0 S139
G1 X36.187 Y100.88 E-.01385
G1 X36.187 Y97.475 E-.78615
;WIPE_END
G1 Z.6 F720
G1 X211.831 Y76.672 F10800
G1 Z.2 F720
G1 E.8 F2100
M204 S800
;TYPE:Perimeter
G1 F1200
G1 X211.78 Y76.676 E.0016
G1 X211.287 Y76.623 E.01555
G1 X210.853 Y76.489 E.01424
G1 X210.436 Y76.263 E.01487
G1 X210.071 Y75.958 E.01491
G1 X209.775 Y75.587 E.01488
G1 X209.558 Y75.165 E.01488
G1 X209.428 Y74.708 E.0149
G1 X209.392 Y74.347 E.01138
G1 X209.436 Y73.82 E.01658
G1 X209.601 Y73.312 E.01675
G1 X209.838 Y72.901 E.01488
G1 X210.141 Y72.553 E.01447
G1 X210.431 Y72.321 E.01164
G1 X210.847 Y72.094 E.01486
G1 X211.301 Y71.953 E.01491
G1 X211.773 Y71.905 E.01488
G1 X212.246 Y71.952 E.0149
G1 X212.7 Y72.091 E.01489
G1 X213.118 Y72.318 E.01491
G1 X213.482 Y72.623 E.01489
G1 X213.778 Y72.994 E.01488
G1 X213.996 Y73.416 E.01489
G1 X214.125 Y73.873 E.01489
G1 X214.161 Y74.347 E.0149
G1 X214.103 Y74.818 E.01488
G1 X213.952 Y75.269 E.01491
G1 X213.715 Y75.68 E.01488
G1 X213.401 Y76.037 E.01491
G1 X213.023 Y76.324 E.01488
G1 X212.595 Y76.531 E.01491
G1 X212.15 Y76.647 E.01442
G1 X211.891 Y76.667 E.00814
M204 S1000
G1 X211.891 Y76.667 F10800
G1 X211.717 Y76.291
M204 S800
;TYPE:External perimeter
G1 F1200
G1 X211.389 Y76.26 E.01033
G1 X211.025 Y76.154 E.01189
G1 X210.671 Y75.968 E.01254
G1 X210.36 Y75.716 E.01255
G1 X210.106 Y75.407 E.01254
G1 X209.918 Y75.054 E.01254
G1 X209.804 Y74.67 E.01256
G1 X209.767 Y74.309 E.01138
G1 X209.811 Y73.874 E.01371
G1 X209.932 Y73.493 E.01253
G1 X210.127 Y73.143 E.01256
G1 X210.383 Y72.842 E.01239
G1 X210.619 Y72.648 E.00958
G1 X210.967 Y72.451 E.01254
G1 X211.348 Y72.327 E.01256
G1 X211.745 Y72.281 E.01253
G1 X212.144 Y72.315 E.01256
G1 X212.528 Y72.427 E.01254
G1 X212.883 Y72.613 E.01257
G1 X213.193 Y72.865 E.01253
G1 X213.447 Y73.174 E.01254
G1 X213.635 Y73.527 E.01254
G1 X213.75 Y73.911 E.01257
G1 X213.786 Y74.309 E.01253
G1 X213.742 Y74.707 E.01256
G1 X213.621 Y75.088 E.01253
G1 X213.426 Y75.438 E.01256
G1 X213.166 Y75.742 E.01254
G1 X212.851 Y75.988 E.01253
G1 X212.493 Y76.168 E.01256
G1 X212.112 Y76.272 E.01238
G1 X211.808 Y76.3 E.00957
G1 X211.777 Y76.297 E.00098
M204 S1000
;WIPE_START
G1 F8640
G1 X211.717 Y76.291 E-.01392
G1 X211.389 Y76.26 E-.07607
G1 X211.025 Y76.154 E-.08754
G1 X210.671 Y75.968 E-.09234
G1 X210.36 Y75.716 E-.09243
G1 X210.106 Y75.407 E-.09236
G1 X209.918 Y75.054 E-.09235
G1 X209.804 Y74.67 E-.09249
G1 X209.767 Y74.309 E-.08379
G1 X209.8 Y73.978 E-.07671
;WIPE_END
G1 Z.6 F720
G1 X212.657 Y95.503 F10800
G1 Z.2 F720
G1 E.8 F2100
M204 S800
;TYPE:Perimeter
G1 F1200
G1 X212.609 Y95.527 E.00168
G1 X212.252 Y95.628 E.01163
G1 X211.78 Y95.676 E.01488
G1 X211.307 Y95.629 E.0149
G1 X210.853 Y95.49 E.01489
G1 X210.436 Y95.263 E.01489
G1 X210.071 Y94.958 E.01491
G1 X209.775 Y94.587 E.01488
G1 X209.558 Y94.165 E.01488
G1 X209.428 Y93.708 E.0149
G1 X209.392 Y93.234 E.0149
G1 X209.451 Y92.763 E.01488
G1 X209.601 Y92.312 E.0149
G1 X209.838 Y91.901 E.01488
G1 X210.152 Y91.544 E.01491
G1 X210.53 Y91.257 E.01488
G1 X210.97 Y91.047 E.01529
G1 X211.395 Y90.935 E.01378
G1 X211.774 Y90.905 E.01192
G1 X212.246 Y90.952 E.01487
G1 X212.595 Y91.05 E.01137
G1 X213.118 Y91.318 E.01843
G1 X213.482 Y91.623 E.01489
G1 X213.778 Y91.994 E.01488
G1 X213.996 Y92.416 E.01489
G1 X214.125 Y92.873 E.01489
G1 X214.161 Y93.347 E.0149
G1 X214.103 Y93.818 E.01488
G1 X213.952 Y94.269 E.01491
G1 X213.715 Y94.68 E.01488
G1 X213.401 Y95.037 E.01491
G1 X213.006 Y95.333 E.01548
G1 X212.711 Y95.477 E.01029
M204 S1000
G1 X212.711 Y95.477 F10800
G1 X212.514 Y95.158
M204 S800
;TYPE:External perimeter
G1 F1200
G1 X212.498 Y95.166 E.00056
G1 X212.205 Y95.254 E.00959
G1 X211.808 Y95.3 E.01253
G1 X211.409 Y95.266 E.01256
G1 X211.025 Y95.154 E.01254
G1 X210.671 Y94.968 E.01254
G1 X210.36 Y94.716 E.01255
G1 X210.106 Y94.407 E.01254
G1 X209.918 Y94.054 E.01254
G1 X209.804 Y93.67 E.01256
G1 X209.767 Y93.272 E.01253
G1 X209.811 Y92.874 E.01256
G1 X209.932 Y92.493 E.01253
G1 X210.127 Y92.143 E.01256
G1 X210.387 Y91.839 E.01254
G1 X210.702 Y91.592 E.01255
G1 X211.072 Y91.41 E.01293
G1 X211.433 Y91.311 E.01174
G1 X211.746 Y91.281 E.00986
G1 X212.144 Y91.315 E.01252
G1 X212.493 Y91.413 E.01137
G1 X212.883 Y91.613 E.01374
G1 X213.193 Y91.865 E.01253
G1 X213.447 Y92.174 E.01254
G1 X213.635 Y92.527 E.01254
G1 X213.75 Y92.911 E.01257
G1 X213.786 Y93.309 E.01253
G1 X213.742 Y93.707 E.01256
G1 X213.621 Y94.088 E.01253
G1 X213.426 Y94.438 E.01256
G1 X213.166 Y94.742 E.01254
G1 X212.834 Y94.997 E.01313
G1 X212.568 Y95.131 E.00934
M204 S1000
;WIPE_START
G1 F8640
G1 X212.514 Y95.158 E-.01394
G1 X212.498 Y95.166 E-.00413
G1 X212.205 Y95.254 E-.07064
G1 X211.808 Y95.3 E-.09228
G1 X211.409 Y95.266 E-.09246
G1 X211.025 Y95.154 E-.09236
G1 X210.671 Y94.968 E-.09234
G1 X210.36 Y94.716 E-.09243
G1 X210.106 Y94.407 E-.09236
G1 X209.918 Y94.054 E-.09235
G1 X209.838 Y93.785 E-.06471
;WIPE_END
G1 Z.6 F720
G1 X167.443 Y92.822 F10800
G1 Z.2 F720
G1 E.8 F2100
M204 S800
;TYPE:Perimeter
G1 F1200
G1 X167.451 Y92.763 E.00187
G1 X167.595 Y92.325 E.01446
G1 X167.772 Y91.999 E.01163
G1 X168.067 Y91.627 E.01489
G1 X168.349 Y91.378 E.0118
G1 X168.809 Y91.108 E.01672
G1 X169.301 Y90.953 E.01617
G1 X169.774 Y90.905 E.01491
G1 X170.246 Y90.952 E.01487
G1 X170.7 Y91.091 E.01489
G1 X171.118 Y91.318 E.01491
G1 X171.482 Y91.623 E.01489
G1 X171.778 Y91.994 E.01488
G1 X171.996 Y92.416 E.01489
G1 X172.125 Y92.873 E.01489
G1 X172.161 Y93.347 E.0149
G1 X172.103 Y93.818 E.01488
G1 X171.959 Y94.256 E.01446
G1 X171.782 Y94.582 E.01163
G1 X171.486 Y94.954 E.01491
G1 X171.123 Y95.259 E.01487
G1 X170.706 Y95.487 E.0149
G1 X170.252 Y95.628 E.01491
G1 X169.78 Y95.676 E.01488
G1 X169.307 Y95.629 E.0149
G1 X168.853 Y95.49 E.01489
G1 X168.436 Y95.263 E.01489
G1 X168.071 Y94.958 E.01491
G1 X167.775 Y94.587 E.01488
G1 X167.558 Y94.165 E.01488
G1 X167.428 Y93.708 E.0149
G1 X167.392 Y93.234 E.0149
G1 X167.436 Y92.882 E.01112
M204 S1000
G1 X167.436 Y92.882 F10800
G1 X167.817 Y92.854
M204 S800
;TYPE:External perimeter
G1 F1200
M73 Q1 S139
G1 X167.93 Y92.497 E.01174
G1 X168.072 Y92.227 E.00957
G1 X168.317 Y91.91 E.01256
G1 X168.592 Y91.667 E.01151
G1 X168.967 Y91.451 E.01357
G1 X169.348 Y91.327 E.01256
G1 X169.745 Y91.281 E.01253
G1 X170.144 Y91.315 E.01256
G1 X170.528 Y91.427 E.01254
G1 X170.883 Y91.613 E.01257
G1 X171.193 Y91.865 E.01253
G1 X171.447 Y92.174 E.01254
G1 X171.635 Y92.527 E.01254
G1 X171.75 Y92.911 E.01257
G1 X171.786 Y93.309 E.01253
G1 X171.742 Y93.707 E.01256
G1 X171.623 Y94.084 E.0124
G1 X171.481 Y94.354 E.00957
G1 X171.237 Y94.671 E.01254
G1 X170.934 Y94.933 E.01256
M73 P1 R138
G1 X170.586 Y95.13 E.01254
G1 X170.205 Y95.254 E.01256
G1 X169.808 Y95.3 E.01253
G1 X169.409 Y95.266 E.01256
G1 X169.025 Y95.154 E.01254
G1 X168.671 Y94.968 E.01254
G1 X168.36 Y94.716 E.01255
G1 X168.106 Y94.407 E.01254
G1 X167.918 Y94.054 E.01254
G1 X167.804 Y93.67 E.01256
G1 X167.767 Y93.272 E.01253
G1 X167.807 Y92.913 E.01133
M204 S1000
;WIPE_START
G1 F8640
G1 X167.817 Y92.854 E-.01382
G1 X167.93 Y92.497 E-.08646
G1 X168.072 Y92.227 E-.07044
G1 X168.317 Y91.91 E-.09251
G1 X168.592 Y91.667 E-.08474
G1 X168.967 Y91.451 E-.09993
G1 X169.348 Y91.327 E-.09252
G1 X169.745 Y91.281 E-.09228
G1 X170.144 Y91.315 E-.09246
G1 X170.455 Y91.406 E-.07484
;WIPE_END
G1 Z.6 F720
G1 X169.244 Y71.971 F10800
G1 Z.2 F720
G1 E.8 F2100
M204 S800
;TYPE:Perimeter
G1 F1200
G1 X169.301 Y71.953 E.00187
G1 X169.773 Y71.905 E.01488
G1 X170.246 Y71.952 E.0149
G1 X170.7 Y72.091 E.01489
G1 X171.118 Y72.318 E.01491
G1 X171.482 Y72.623 E.01489
G1 X171.778 Y72.994 E.01488
G1 X171.996 Y73.416 E.01489
G1 X172.125 Y73.873 E.01489
G1 X172.161 Y74.347 E.0149
G1 X172.103 Y74.818 E.01488
G1 X171.959 Y75.256 E.01446
G1 X171.782 Y75.582 E.01163
G1 X171.486 Y75.954 E.01491
G1 X171.123 Y76.259 E.01487
G1 X170.706 Y76.487 E.0149
G1 X170.252 Y76.628 E.01491
G1 X169.78 Y76.676 E.01488
G1 X169.307 Y76.629 E.0149
G1 X168.853 Y76.49 E.01489
G1 X168.436 Y76.263 E.01489
G1 X168.071 Y75.958 E.01491
G1 X167.775 Y75.587 E.01488
G1 X167.558 Y75.165 E.01488
G1 X167.434 Y74.748 E.01364
G1 X167.392 Y74.234 E.01617
G1 X167.451 Y73.763 E.01488
G1 X167.595 Y73.325 E.01446
G1 X167.772 Y72.999 E.01163
G1 X168.067 Y72.627 E.01489
G1 X168.43 Y72.322 E.01487
G1 X168.847 Y72.094 E.0149
G1 X169.187 Y71.989 E.01116
M204 S1000
G1 X169.187 Y71.989 F10800
G1 X169.33 Y72.333
M204 S800
;TYPE:External perimeter
G1 F1200
G1 X169.348 Y72.327 E.00059
G1 X169.745 Y72.281 E.01253
G1 X170.144 Y72.315 E.01256
G1 X170.528 Y72.427 E.01254
G1 X170.883 Y72.613 E.01257
G1 X171.193 Y72.865 E.01253
G1 X171.447 Y73.174 E.01254
G1 X171.635 Y73.527 E.01254
G1 X171.75 Y73.911 E.01257
G1 X171.786 Y74.309 E.01253
G1 X171.742 Y74.707 E.01256
G1 X171.623 Y75.084 E.0124
G1 X171.481 Y75.354 E.00957
G1 X171.237 Y75.671 E.01254
G1 X170.934 Y75.933 E.01256
G1 X170.586 Y76.13 E.01254
G1 X170.205 Y76.254 E.01256
G1 X169.808 Y76.3 E.01253
G1 X169.409 Y76.266 E.01256
G1 X169.025 Y76.154 E.01254
G1 X168.671 Y75.968 E.01254
G1 X168.36 Y75.716 E.01255
G1 X168.106 Y75.407 E.01254
G1 X167.918 Y75.054 E.01254
G1 X167.805 Y74.684 E.01213
G1 X167.767 Y74.272 E.01297
G1 X167.811 Y73.874 E.01256
G1 X167.93 Y73.497 E.0124
G1 X168.072 Y73.227 E.00957
G1 X168.317 Y72.91 E.01256
G1 X168.619 Y72.648 E.01254
G1 X168.967 Y72.451 E.01254
G1 X169.273 Y72.352 E.01008
M204 S1000
;WIPE_START
G1 F8640
G1 X169.33 Y72.333 E-.01387
G1 X169.348 Y72.327 E-.00438
G1 X169.745 Y72.281 E-.09228
G1 X170.144 Y72.315 E-.09246
G1 X170.528 Y72.427 E-.09236
G1 X170.883 Y72.613 E-.09254
G1 X171.193 Y72.865 E-.09225
G1 X171.447 Y73.174 E-.09236
G1 X171.635 Y73.527 E-.09235
G1 X171.75 Y73.911 E-.09256
G1 X171.767 Y74.095 E-.04259
;WIPE_END
G1 Z.6 F720
G1 X84.109 Y73.816 F10800
G1 Z.2 F720
G1 E.8 F2100
M204 S800
;TYPE:Perimeter
G1 F1200
G1 X84.125 Y73.873 E.00186
G1 X84.162 Y74.332 E.01444
G1 X84.126 Y74.702 E.01166
G1 X83.998 Y75.159 E.01488
G1 X83.782 Y75.582 E.01489
G1 X83.486 Y75.954 E.01491
G1 X83.123 Y76.259 E.01487
G1 X82.706 Y76.487 E.0149
G1 X82.252 Y76.628 E.01491
G1 X81.78 Y76.676 E.01488
G1 X81.307 Y76.629 E.0149
G1 X80.853 Y76.49 E.01489
G1 X80.436 Y76.263 E.01489
G1 X80.071 Y75.958 E.01491
G1 X79.775 Y75.587 E.01488
G1 X79.558 Y75.165 E.01488
G1 X79.428 Y74.708 E.0149
G1 X79.392 Y74.234 E.0149
G1 X79.451 Y73.763 E.01488
G1 X79.601 Y73.312 E.0149
G1 X79.838 Y72.901 E.01488
G1 X80.141 Y72.553 E.01447
G1 X80.431 Y72.321 E.01164
G1 X80.847 Y72.094 E.01486
G1 X81.301 Y71.953 E.01491
G1 X81.773 Y71.905 E.01488
G1 X82.246 Y71.952 E.0149
G1 X82.7 Y72.091 E.01489
G1 X83.118 Y72.318 E.01491
G1 X83.482 Y72.623 E.01489
G1 X83.778 Y72.994 E.01488
G1 X83.996 Y73.416 E.01489
G1 X84.092 Y73.758 E.01114
M204 S1000
G1 X84.092 Y73.758 F10800
G1 X83.688 Y73.705
M204 S800
;TYPE:External perimeter
G1 F1200
G1 X83.75 Y73.911 E.00675
G1 X83.786 Y74.304 E.01237
G1 X83.761 Y74.609 E.0096
G1 X83.658 Y74.995 E.01253
G1 X83.481 Y75.354 E.01255
G1 X83.237 Y75.671 E.01254
G1 X82.934 Y75.933 E.01256
G1 X82.586 Y76.13 E.01254
G1 X82.205 Y76.254 E.01256
G1 X81.808 Y76.3 E.01253
G1 X81.409 Y76.266 E.01256
G1 X81.025 Y76.154 E.01254
G1 X80.671 Y75.968 E.01254
G1 X80.36 Y75.716 E.01255
G1 X80.106 Y75.407 E.01254
G1 X79.918 Y75.054 E.01254
G1 X79.804 Y74.67 E.01256
G1 X79.767 Y74.272 E.01253
G1 X79.811 Y73.874 E.01256
G1 X79.932 Y73.493 E.01253
G1 X80.127 Y73.143 E.01256
G1 X80.383 Y72.842 E.01239
G1 X80.619 Y72.648 E.00958
G1 X80.967 Y72.451 E.01254
G1 X81.348 Y72.327 E.01256
G1 X81.745 Y72.281 E.01253
G1 X82.144 Y72.315 E.01256
G1 X82.528 Y72.427 E.01254
G1 X82.883 Y72.613 E.01257
G1 X83.193 Y72.865 E.01253
G1 X83.447 Y73.174 E.01254
G1 X83.635 Y73.527 E.01254
G1 X83.671 Y73.647 E.00393
M204 S1000
;WIPE_START
G1 F8640
G1 X83.688 Y73.705 E-.01396
G1 X83.75 Y73.911 E-.04967
G1 X83.786 Y74.304 E-.09112
G1 X83.761 Y74.609 E-.07066
G1 X83.658 Y74.995 E-.09225
G1 X83.481 Y75.354 E-.09242
G1 X83.237 Y75.671 E-.09237
G1 X82.934 Y75.933 E-.09249
G1 X82.586 Y76.13 E-.09234
G1 X82.205 Y76.254 E-.09252
G1 X82.118 Y76.264 E-.0202
;WIPE_END
G1 Z.6 F720
G1 X65.295 Y68.623 F10800
G1 Z.2 F720
G1 E.8 F2100
M204 S800
;TYPE:Perimeter
G1 F1200
G1 X65.347 Y68.594 E.00187
G1 X65.801 Y68.453 E.01491
G1 X66.273 Y68.405 E.01488
G1 X66.746 Y68.452 E.0149
G1 X67.2 Y68.591 E.01489
G1 X67.618 Y68.818 E.01491
G1 X67.982 Y69.123 E.01489
G1 X68.278 Y69.494 E.01488
G1 X68.496 Y69.916 E.01489
G1 X68.625 Y70.373 E.01489
G1 X68.661 Y70.847 E.0149
G1 X68.603 Y71.318 E.01488
G1 X68.452 Y71.769 E.01491
G1 X68.215 Y72.18 E.01488
G1 X67.912 Y72.528 E.01447
G1 X67.623 Y72.759 E.0116
G1 X67.206 Y72.987 E.0149
G1 X66.752 Y73.128 E.01491
G1 X66.248 Y73.173 E.01587
G1 X65.807 Y73.129 E.0139
G1 X65.353 Y72.99 E.01489
G1 X64.883 Y72.721 E.01698
G1 X64.54 Y72.421 E.01429
G1 X64.275 Y72.087 E.01337
G1 X64.058 Y71.665 E.01488
