; generated by PrusaSlicer 2.7.4 on 2024-06-05 at 16:03:52 UTC


;
;
; 

; external perimeters extrusion width = 1.00mm
; perimeters extrusion width = 1.00mm
; infill extrusion width = 0.90mm
; solid infill extrusion width = 0.90mm
; top infill extrusion width = 0.80mm
; first layer extrusion width = 0.90mm

M73 P0 R69
M73 Q0 S69
M201 X1000 Y1000 Z200 E5000 ; sets maximum accelerations, mm/sec^2
M203 X200 Y200 Z12 E120 ; sets maximum feedrates, mm / sec
M204 S1250 T1250 ; sets acceleration (S) and retract acceleration (R), mm/sec^2
M205 X8.00 Y8.00 Z0.40 E4.50 ; sets the jerk limits, mm/sec
M205 S0 T0 ; sets the minimum extruding and travel feed rate, mm/sec

; printing object SelfBalancing-BackPanelBody.stl id:0 copy 0
; stop printing object SelfBalancing-BackPanelBody.stl id:0 copy 0

;TYPE:Custom
M862.3 P "MK3" ; printer model check
M862.1 P0.8 ; nozzle diameter check
M115 U3.13.3 ; tell printer latest fw version
G90 ; use absolute coordinates
M83 ; extruder relative mode
M104 S240 ; set extruder temp
M140 S85 ; set bed temp
M190 S85 ; wait for bed temp
M109 S240 ; wait for extruder temp
G28 W ; home all without mesh bed level
G80 X62.7466 Y29.7466 W124.507 H150.507 ; mesh bed levelling

G1 Z0.2 F720
G1 Y-3 F1000 ; go outside print area
G92 E0
G1 X60 E9 F1000 ; intro line
G1 X100 E12.5 F1000 ; intro line

G92 E0
M221 S95
G21 ; set units to millimeters
G90 ; use absolute coordinates
M83 ; use relative distances for extrusion

M900 K0.02 ; Filament gcode LA 1.5
; ; Filament gcode LA 1.0




M107
;LAYER_CHANGE
;Z:0.3
;HEIGHT:0.3
G1 E-1 F2100
G1 Z.5 F720
G1 X63.559 Y32.305 F10800
G1 Z.3 F720
G1 E1 F1200
M204 S800
;TYPE:Skirt/Brim
;WIDTH:0.9
G1 X64.662 Y30.959 E.18137
G1 X67 Y30.164 E.25738
G1 X183 Y30.164 E12.08988
G1 X184.695 Y30.559 E.18139
G1 X186.041 Y31.662 E.18137
G1 X186.836 Y34 E.25738
G1 X186.836 Y176 E14.79967
G1 X186.441 Y177.695 E.18139
G1 X185.338 Y179.041 E.18137
G1 X183 Y179.836 E.25738
G1 X67 Y179.836 E12.08988
G1 X65.305 Y179.441 E.18139
G1 X63.959 Y178.338 E.18137
G1 X63.164 Y176 E.25738
G1 X63.164 Y34 E14.79967
G1 X63.532 Y32.422 E.16888
M204 S1000
;WIPE_START
G1 F8640
G1 X63.559 Y32.305 E-.02773
G1 X64.662 Y30.959 E-.40182
G1 X67 Y30.164 E-.57021
G1 X67.001 Y30.164 E-.00024
;WIPE_END
G1 Z.5 F720
; printing object SelfBalancing-BackPanelBody.stl id:0 copy 0
G1 X68.486 Y174.514 F10800
G1 Z.3 F720
M73 P0 R68
G1 E1 F1200
M204 S800
;TYPE:Perimeter
;WIDTH:0.899999
G1 X68.486 Y35.486 E14.48992
G1 X77.784 Y35.486 E.96907
M73 P1 R68
M73 Q1 S69
;WIDTH:0.925807
G1 X78.18 Y35.499 E.04257
;WIDTH:0.951614
G1 X78.576 Y35.511 E.04384
;WIDTH:0.997543
G1 X78.704 Y35.534 E.01514
;WIDTH:1.04347
G1 X78.832 Y35.557 E.01588
;WIDTH:1.0894
G1 X78.96 Y35.58 E.01663
;WIDTH:1.13533
G1 X79.088 Y35.603 E.01737
;WIDTH:1.18126
G1 X79.216 Y35.626 E.01812
;WIDTH:1.22719
G1 X79.344 Y35.649 E.01886
G1 X79.954 Y35.634 E.0885
;WIDTH:1.21315
G1 X80.466 Y35.642 E.07337
G1 X80.576 Y35.621 E.01605
;WIDTH:1.17016
G1 X80.685 Y35.599 E.01534
;WIDTH:1.12718
G1 X80.794 Y35.578 E.01471
;WIDTH:1.0842
G1 X80.903 Y35.556 E.01414
;WIDTH:1.04122
G1 X81.012 Y35.535 E.01352
;WIDTH:0.998235
G1 X81.121 Y35.513 E.01295
;WIDTH:0.955253
G1 X81.23 Y35.492 E.01233
;WIDTH:0.912271
G1 X81.65 Y35.486 E.04442
;WIDTH:0.899999
G1 X167.784 Y35.486 E8.97714
;WIDTH:0.925805
G1 X168.18 Y35.499 E.04257
;WIDTH:0.951611
G1 X168.576 Y35.511 E.04384
;WIDTH:0.99754
G1 X168.704 Y35.534 E.01514
;WIDTH:1.04347
G1 X168.832 Y35.557 E.01588
;WIDTH:1.0894
G1 X168.96 Y35.58 E.01663
;WIDTH:1.13533
G1 X169.088 Y35.603 E.01737
;WIDTH:1.18126
G1 X169.216 Y35.626 E.01812
;WIDTH:1.22718
G1 X169.344 Y35.649 E.01886
G1 X169.954 Y35.634 E.0885
;WIDTH:1.21314
G1 X170.466 Y35.642 E.07337
G1 X170.575 Y35.621 E.0159
;WIDTH:1.17016
G1 X170.685 Y35.599 E.01547
;WIDTH:1.12718
G1 X170.794 Y35.578 E.01471
;WIDTH:1.0842
G1 X170.903 Y35.556 E.01414
;WIDTH:1.04122
G1 X171.012 Y35.535 E.01352
;WIDTH:0.998239
G1 X171.121 Y35.513 E.01295
;WIDTH:0.955258
G1 X171.23 Y35.492 E.01233
;WIDTH:0.912277
G1 X171.65 Y35.486 E.04442
;WIDTH:0.899999
G1 X181.514 Y35.486 E1.02806
G1 X181.514 Y39.704 E.43961
G1 X181.514 Y174.514 E14.0503
G1 X171.65 Y174.514 E1.02806
M73 Q1 S68
;WIDTH:0.948548
G1 X171.493 Y174.49 E.01751
;WIDTH:0.997097
G1 X171.336 Y174.466 E.01848
;WIDTH:1.04565
G1 X171.179 Y174.442 E.01944
;WIDTH:1.09419
G1 X171.022 Y174.417 E.02042
;WIDTH:1.14274
G1 X170.865 Y174.393 E.02136
;WIDTH:1.17795
G1 X170.666 Y174.375 E.02775
;WIDTH:1.21315
G1 X170.466 Y174.358 E.02876
G1 X169.954 Y174.366 E.07337
;WIDTH:1.22719
G1 X169.344 Y174.351 E.0885
G1 X169.234 Y174.373 E.01627
;WIDTH:1.18192
G1 X169.125 Y174.396 E.01553
;WIDTH:1.13666
G1 X169.015 Y174.419 E.01503
;WIDTH:1.0914
G1 X168.905 Y174.441 E.01437
;WIDTH:1.04613
G1 X168.796 Y174.464 E.01364
;WIDTH:1.00087
G1 X168.686 Y174.487 E.01313
;WIDTH:0.955607
G1 X168.576 Y174.509 E.01247
;WIDTH:0.910344
G1 X168.148 Y174.514 E.04516
;WIDTH:0.899999
G1 X81.65 Y174.514 E9.01508
;WIDTH:0.948547
G1 X81.493 Y174.49 E.01751
;WIDTH:0.997094
G1 X81.336 Y174.466 E.01848
;WIDTH:1.04564
G1 X81.179 Y174.442 E.01944
;WIDTH:1.09419
G1 X81.022 Y174.417 E.02042
;WIDTH:1.14274
G1 X80.865 Y174.393 E.02136
;WIDTH:1.17795
G1 X80.666 Y174.375 E.02775
;WIDTH:1.21315
G1 X80.467 Y174.358 E.02862
G1 X79.954 Y174.366 E.07351
;WIDTH:1.22719
G1 X79.344 Y174.351 E.0885
G1 X79.234 Y174.373 E.01627
;WIDTH:1.18192
G1 X79.125 Y174.396 E.01553
;WIDTH:1.13666
G1 X79.015 Y174.419 E.01503
;WIDTH:1.0914
G1 X78.905 Y174.441 E.01437
;WIDTH:1.04614
G1 X78.796 Y174.464 E.01364
;WIDTH:1.00087
G1 X78.686 Y174.487 E.01313
;WIDTH:0.955612
G1 X78.576 Y174.509 E.01247
;WIDTH:0.91035
G1 X78.148 Y174.514 E.04516
;WIDTH:0.899999
G1 X68.606 Y174.514 E.9945
M204 S1000
;WIPE_START
G1 F8640
G1 X68.486 Y174.514 E-.02771
G1 X68.486 Y170.303 E-.97229
;WIPE_END
G1 Z.5 F720
G1 X67.65 Y175.35 F10800
G1 Z.3 F720
G1 E1 F1200
M204 S800
;TYPE:External perimeter
G1 X67.65 Y34.65 E14.66418
G1 X182.35 Y34.65 E11.95438
G1 X182.35 Y39.704 E.52674
G1 X182.35 Y175.35 E14.13743
G1 X67.77 Y175.35 E11.94187
M204 S1000
;WIPE_START
G1 F8640
M73 P2 R68
M73 Q2 S68
G1 X67.65 Y175.35 E-.02771
G1 X67.65 Y171.139 E-.97229
;WIPE_END
G1 Z.5 F720
G1 X168.701 Y37.197 F10800
G1 Z.3 F720
G1 E1 F1200
M204 S800
;TYPE:Perimeter
;WIDTH:0.941241
G1 X168.728 Y37.181 E.00343
;WIDTH:0.982483
G1 X168.836 Y37.118 E.01432
;WIDTH:1.02372
G1 X168.944 Y37.054 E.01502
;WIDTH:1.06497
G1 X169.052 Y36.991 E.0156
;WIDTH:1.10621
G1 X169.16 Y36.928 E.01625
;WIDTH:1.14653
G1 X169.245 Y36.888 E.01268
;WIDTH:1.18686
G1 X169.331 Y36.848 E.01328
;WIDTH:1.22718
G1 X169.416 Y36.808 E.01362
G1 X169.954 Y36.766 E.07826
;WIDTH:1.21314
G1 X170.423 Y36.789 E.06728
G1 X170.507 Y36.831 E.01346
;WIDTH:1.17016
G1 X170.591 Y36.873 E.01295
;WIDTH:1.12718
G1 X170.675 Y36.915 E.01245
;WIDTH:1.0842
G1 X170.759 Y36.956 E.01189
;WIDTH:1.04122
G1 X170.843 Y36.998 E.01144
;WIDTH:0.998239
G1 X170.927 Y37.04 E.01094
;WIDTH:0.955258
G1 X171.011 Y37.082 E.01044
;WIDTH:0.912277
G1 X171.566 Y37.345 E.06495
;WIDTH:0.899999
G1 X172.061 Y37.708 E.06398
G1 X172.474 Y38.162 E.06397
G1 X172.789 Y38.689 E.06399
G1 X172.994 Y39.267 E.06392
G1 X173.08 Y39.875 E.064
G1 X173.043 Y40.488 E.064
G1 X172.886 Y41.081 E.06393
G1 X172.679 Y41.528 E.05134
G1 X172.342 Y42.003 E.0607
G1 X171.899 Y42.428 E.06398
G1 X171.38 Y42.756 E.06399
G1 X170.807 Y42.975 E.06393
G1 X170.202 Y43.076 E.06393
G1 X169.588 Y43.055 E.06403
G1 X168.991 Y42.912 E.06398
G1 X168.434 Y42.655 E.06393
G1 X167.939 Y42.292 E.06398
G1 X167.526 Y41.838 E.06397
G1 X167.421 Y41.694 E.01857
G1 X167.177 Y41.244 E.05335
G1 X167.006 Y40.733 E.05616
G1 X166.92 Y40.125 E.064
G1 X166.957 Y39.512 E.064
G1 X167.11 Y38.93 E.06272
G1 X167.319 Y38.476 E.05209
G1 X167.658 Y37.997 E.06116
G1 X168.101 Y37.572 E.06398
G1 X168.598 Y37.258 E.06127
M204 S1000
G1 X168.598 Y37.258 F10800
G1 X169.123 Y37.931
M204 S800
;TYPE:External perimeter
G1 F1200
G1 X169.54 Y37.799 E.04559
G1 X169.986 Y37.752 E.04674
G1 X170.431 Y37.793 E.04658
G1 X170.86 Y37.922 E.04669
G1 X171.255 Y38.134 E.04672
G1 X171.6 Y38.42 E.04671
G1 X171.881 Y38.768 E.04662
G1 X172.088 Y39.165 E.04666
G1 X172.212 Y39.595 E.04664
G1 X172.248 Y40.042 E.04674
G1 X172.195 Y40.486 E.0466
G1 X172.06 Y40.902 E.04558
G1 X171.896 Y41.208 E.03618
G1 X171.62 Y41.56 E.04662
G1 X171.279 Y41.85 E.04665
G1 X170.887 Y42.066 E.04665
G1 X170.46 Y42.201 E.04667
G1 X170.014 Y42.248 E.04674
G1 X169.569 Y42.207 E.04658
G1 X169.14 Y42.078 E.04669
G1 X168.745 Y41.866 E.04672
G1 X168.4 Y41.58 E.04671
G1 X168.131 Y41.253 E.04413
G1 X167.912 Y40.835 E.04918
G1 X167.788 Y40.405 E.04664
G1 X167.752 Y39.958 E.04674
G1 X167.804 Y39.515 E.04649
G1 X167.936 Y39.108 E.04459
G1 X168.104 Y38.792 E.0373
G1 X168.38 Y38.44 E.04662
G1 X168.721 Y38.15 E.04665
G1 X169.017 Y37.987 E.03522
M204 S1000
;WIPE_START
G1 F8640
G1 X169.123 Y37.931 E-.02768
G1 X169.54 Y37.799 E-.101
G1 X169.986 Y37.752 E-.10355
G1 X170.431 Y37.793 E-.10319
G1 X170.86 Y37.922 E-.10344
G1 X171.255 Y38.134 E-.10351
G1 X171.6 Y38.42 E-.10347
G1 X171.881 Y38.768 E-.10328
G1 X172.088 Y39.165 E-.10338
G1 X172.212 Y39.595 E-.10333
G1 X172.227 Y39.785 E-.04417
;WIPE_END
G1 Z.5 F720
G1 X167.427 Y80.328 F10800
G1 Z.3 F720
G1 E1 F1200
M204 S800
;TYPE:Perimeter
G1 X167.658 Y79.997 E.04207
G1 X168.101 Y79.572 E.06398
G1 X168.62 Y79.244 E.06399
G1 X169.193 Y79.025 E.06393
G1 X169.798 Y78.924 E.06393
G1 X170.412 Y78.946 E.06403
G1 X171.009 Y79.088 E.06396
G1 X171.566 Y79.345 E.06393
G1 X172.061 Y79.708 E.06398
G1 X172.474 Y80.162 E.06397
G1 X172.789 Y80.689 E.06399
G1 X172.994 Y81.267 E.06392
G1 X173.08 Y81.875 E.064
G1 X173.043 Y82.488 E.064
G1 X172.89 Y83.07 E.06272
G1 X172.681 Y83.524 E.05209
G1 X172.342 Y84.003 E.06116
G1 X171.899 Y84.428 E.06398
G1 X171.38 Y84.756 E.06399
G1 X170.807 Y84.975 E.06393
G1 X170.202 Y85.076 E.06393
G1 X169.588 Y85.054 E.06403
G1 X168.991 Y84.912 E.06396
G1 X168.434 Y84.655 E.06393
G1 X167.851 Y84.214 E.07619
G1 X167.522 Y83.834 E.05239
G1 X167.211 Y83.311 E.06342
G1 X167.006 Y82.733 E.06392
G1 X166.921 Y82.137 E.06275
G1 X166.938 Y81.637 E.05214
G1 X167.063 Y81.064 E.06112
G1 X167.307 Y80.501 E.06395
G1 X167.359 Y80.427 E.00943
M204 S1000
G1 X167.359 Y80.427 F10800
G1 X168.062 Y80.874
M204 S800
;TYPE:External perimeter
G1 F1200
G1 X168.103 Y80.792 E.00956
G1 X168.38 Y80.44 E.04668
G1 X168.721 Y80.15 E.04665
G1 X169.113 Y79.934 E.04665
G1 X169.54 Y79.799 E.04667
G1 X169.986 Y79.752 E.04674
G1 X170.431 Y79.793 E.04658
G1 X170.86 Y79.922 E.04669
G1 X171.255 Y80.134 E.04672
G1 X171.6 Y80.42 E.04671
G1 X171.881 Y80.768 E.04662
G1 X172.088 Y81.165 E.04666
G1 X172.212 Y81.595 E.04664
G1 X172.248 Y82.042 E.04674
G1 X172.196 Y82.485 E.04649
G1 X172.064 Y82.892 E.04459
G1 X171.896 Y83.208 E.0373
G1 X171.62 Y83.56 E.04662
G1 X171.279 Y83.85 E.04665
G1 X170.887 Y84.066 E.04665
G1 X170.46 Y84.201 E.04667
G1 X170.014 Y84.248 E.04674
G1 X169.569 Y84.207 E.04658
G1 X169.14 Y84.078 E.04669
G1 X168.745 Y83.866 E.04672
G1 X168.431 Y83.613 E.04203
G1 X168.119 Y83.232 E.05132
G1 X167.912 Y82.835 E.04666
G1 X167.788 Y82.406 E.04654
G1 X167.751 Y81.98 E.04457
G1 X167.783 Y81.623 E.03736
G1 X167.902 Y81.192 E.0466
G1 X168.008 Y80.981 E.02461
M204 S1000
;WIPE_START
G1 F8640
G1 X168.062 Y80.874 E-.02767
G1 X168.103 Y80.792 E-.02117
G1 X168.38 Y80.44 E-.10343
G1 X168.721 Y80.15 E-.10336
G1 X169.113 Y79.934 E-.10335
G1 X169.54 Y79.799 E-.10341
G1 X169.986 Y79.752 E-.10355
G1 X170.431 Y79.793 E-.10319
G1 X170.86 Y79.922 E-.10344
G1 X171.255 Y80.134 E-.10351
G1 X171.6 Y80.42 E-.10347
G1 X171.656 Y80.489 E-.02045
;WIPE_END
G1 Z.5 F720
G1 X167.207 Y168.73 F10800
G1 Z.3 F720
G1 E1 F1200
M204 S800
;TYPE:Perimeter
G1 X167.385 Y168.368 E.04204
G1 X167.76 Y167.883 E.0639
G1 X168.224 Y167.481 E.06398
G1 X168.799 Y167.159 E.06869
G1 X169.342 Y166.989 E.0593
G1 X169.94 Y166.918 E.06276
G1 X170.439 Y166.948 E.0521
G1 X171.009 Y167.088 E.06117
G1 X171.566 Y167.345 E.06393
G1 X172.061 Y167.708 E.06398
G1 X172.474 Y168.162 E.06397
G1 X172.789 Y168.689 E.06399
G1 X172.994 Y169.267 E.06392
G1 X173.08 Y169.875 E.064
G1 X173.043 Y170.488 E.064
G1 X172.886 Y171.081 E.06393
G1 X172.615 Y171.632 E.064
G1 X172.24 Y172.117 E.0639
G1 X171.776 Y172.519 E.06398
G1 X171.241 Y172.821 E.06403
;WIDTH:0.948548
G1 X171.131 Y172.883 E.01392
;WIDTH:0.997097
G1 X171.021 Y172.944 E.01463
;WIDTH:1.04565
G1 X170.911 Y173.005 E.01539
;WIDTH:1.09419
G1 X170.801 Y173.067 E.01622
;WIDTH:1.14274
G1 X170.691 Y173.128 E.01692
;WIDTH:1.18407
G1 X170.627 Y173.164 E.01025
;WIDTH:1.22539
G1 X170.563 Y173.199 E.01056
G1 X170.059 Y173.231 E.07313
;WIDTH:1.22719
G1 X169.416 Y173.192 E.09343
G1 X169.335 Y173.145 E.01358
;WIDTH:1.18192
G1 X169.253 Y173.098 E.01317
;WIDTH:1.13666
G1 X169.172 Y173.051 E.01252
;WIDTH:1.0914
G1 X169.09 Y173.004 E.01211
;WIDTH:1.04613
G1 X169.009 Y172.957 E.01147
;WIDTH:1.00087
G1 X168.927 Y172.91 E.01104
;WIDTH:0.955607
G1 X168.846 Y172.863 E.01041
;WIDTH:0.910344
G1 X168.304 Y172.573 E.06486
;WIDTH:0.899999
G1 X167.827 Y172.186 E.06402
G1 X167.438 Y171.713 E.06383
G1 X167.196 Y171.283 E.05143
G1 X167.006 Y170.733 E.06065
G1 X166.92 Y170.125 E.064
G1 X166.957 Y169.512 E.064
G1 X167.114 Y168.919 E.06393
G1 X167.154 Y168.838 E.00942
M204 S1000
G1 X167.154 Y168.838 F10800
G1 X167.939 Y169.106
M204 S800
;TYPE:External perimeter
G1 F1200
G1 X167.945 Y169.088 E.00198
G1 X168.166 Y168.699 E.04663
G1 X168.46 Y168.362 E.04661
G1 X168.815 Y168.089 E.04667
G1 X169.153 Y167.916 E.03957
G1 X169.65 Y167.779 E.05373
G1 X170.076 Y167.752 E.04449
G1 X170.432 Y167.793 E.03735
G1 X170.86 Y167.922 E.04659
G1 X171.255 Y168.134 E.04672
G1 X171.6 Y168.42 E.04671
G1 X171.881 Y168.768 E.04662
G1 X172.088 Y169.165 E.04666
G1 X172.212 Y169.595 E.04664
G1 X172.248 Y170.042 E.04674
G1 X172.195 Y170.486 E.0466
G1 X172.055 Y170.912 E.04674
G1 X171.834 Y171.301 E.04663
G1 X171.54 Y171.638 E.04661
G1 X171.185 Y171.911 E.04667
G1 X170.783 Y172.108 E.04666
G1 X170.349 Y172.221 E.04674
G1 X169.902 Y172.246 E.04666
G1 X169.459 Y172.183 E.04664
G1 X169.037 Y172.032 E.04671
G1 X168.654 Y171.801 E.04662
G1 X168.324 Y171.499 E.04662
G1 X168.065 Y171.146 E.04563
G1 X167.912 Y170.835 E.03612
G1 X167.788 Y170.405 E.04664
G1 X167.752 Y169.958 E.04674
G1 X167.805 Y169.514 E.0466
G1 X167.901 Y169.22 E.03223
M204 S1000
;WIPE_START
G1 F8640
G1 X167.939 Y169.106 E-.02775
G1 X167.945 Y169.088 E-.00438
G1 X168.166 Y168.699 E-.1033
G1 X168.46 Y168.362 E-.10326
G1 X168.815 Y168.089 E-.10341
G1 X169.153 Y167.916 E-.08767
G1 X169.65 Y167.779 E-.11904
M73 P2 R67
G1 X170.076 Y167.752 E-.09856
G1 X170.432 Y167.793 E-.08274
G1 X170.86 Y167.922 E-.10322
G1 X171.255 Y168.134 E-.10351
G1 X171.465 Y168.308 E-.06316
;WIPE_END
G1 Z.5 F720
G1 X77.207 Y168.73 F10800
G1 Z.3 F720
G1 E1 F1200
M204 S800
;TYPE:Perimeter
G1 X77.385 Y168.368 E.04204
G1 X77.76 Y167.883 E.0639
G1 X78.224 Y167.481 E.06398
G1 X78.759 Y167.179 E.06403
G1 X79.342 Y166.989 E.06391
G1 X79.94 Y166.918 E.06276
G1 X80.439 Y166.948 E.0521
G1 X81.009 Y167.088 E.06117
G1 X81.566 Y167.345 E.06393
G1 X82.061 Y167.708 E.06398
G1 X82.474 Y168.162 E.06397
G1 X82.789 Y168.689 E.06399
G1 X82.994 Y169.267 E.06392
G1 X83.08 Y169.875 E.064
G1 X83.043 Y170.488 E.064
G1 X82.886 Y171.081 E.06393
G1 X82.615 Y171.632 E.064
G1 X82.24 Y172.117 E.0639
G1 X81.776 Y172.519 E.06398
G1 X81.241 Y172.821 E.06403
;WIDTH:0.948547
G1 X81.131 Y172.883 E.01392
;WIDTH:0.997094
G1 X81.021 Y172.944 E.01463
;WIDTH:1.04564
G1 X80.911 Y173.005 E.01539
;WIDTH:1.09419
G1 X80.801 Y173.067 E.01622
;WIDTH:1.14274
G1 X80.691 Y173.128 E.01692
;WIDTH:1.18407
G1 X80.627 Y173.164 E.01025
;WIDTH:1.2254
G1 X80.563 Y173.199 E.01056
G1 X80.059 Y173.231 E.07313
;WIDTH:1.22719
G1 X79.416 Y173.192 E.09343
G1 X79.335 Y173.145 E.01358
;WIDTH:1.18192
G1 X79.253 Y173.098 E.01317
;WIDTH:1.13666
G1 X79.172 Y173.051 E.01252
;WIDTH:1.0914
G1 X79.09 Y173.004 E.01211
;WIDTH:1.04614
G1 X79.009 Y172.957 E.01147
;WIDTH:1.00087
G1 X78.927 Y172.91 E.01104
;WIDTH:0.955612
G1 X78.846 Y172.863 E.01041
;WIDTH:0.91035
G1 X78.304 Y172.573 E.06486
;WIDTH:0.899999
G1 X77.828 Y172.186 E.06394
G1 X77.506 Y171.813 E.05136
G1 X77.211 Y171.311 E.06069
G1 X77.006 Y170.733 E.06392
